src/img/icons/logo_preto.svg

<svg width="25" height="24" viewBox="0 0 25 24" fill="none" xmlns="http://www.w3.org/2000/svg">
<path fill-rule="evenodd" clip-rule="evenodd" d="M18.7519 5.61231C20.127 6.45583 21.4241 8.19919 22.3534 7.57661C23.2828 6.95403 23.6782 3.77724 20.9206 2.31743C19.9334 1.79403 18.5164 2.12188 17.9263 3.06813C17.3363 4.01439 17.7996 5.02814 18.7519 5.61231Z" fill="#272727"/>
<path fill-rule="evenodd" clip-rule="evenodd" d="M5.57844 6.18689C4.15435 6.94524 2.80479 8.59012 1.91501 7.91207C1.02524 7.23401 0.866842 4.08112 3.70861 2.79171C4.72721 2.32952 6.07794 2.70045 6.60924 3.68095C7.14054 4.66146 6.5647 5.66171 5.57844 6.18689Z" fill="#272727"/>
<path fill-rule="evenodd" clip-rule="evenodd" d="M10.8685 4.2695C9.95953 4.50444 9.17062 3.84856 8.86447 2.88551C8.54747 1.89043 9.1947 0.878437 9.93279 0.609119C11.2701 0.121281 13.0247 0.177681 14.2207 0.607869C15.0983 0.923539 15.5566 1.77597 15.3629 2.78352C15.1692 3.79108 14.4544 4.35083 13.5447 4.15512C12.231 3.87255 10.8685 4.2695 10.8685 4.2695Z" fill="#272727"/>
<path fill-rule="evenodd" clip-rule="evenodd" d="M7.55991 20.7414C8.05442 21.9681 7.94345 23.1444 6.85161 23.7506C5.33417 24.593 3.81238 23.0785 3.28416 22.141C2.51583 20.7774 2.18809 18.3176 2.50936 15.737C3.03149 11.5429 6.04303 7.60882 10.203 6.70683C15.1141 5.64199 19.9334 8.10806 20.6647 11.6408C20.9943 13.2525 20.3303 15.5195 19.189 16.7116C17.9486 18.0072 15.6619 18.9599 13.5606 19.0881C12.7308 19.1383 11.0829 18.6948 10.7971 17.0098C10.5537 15.5741 11.8501 14.3346 13.5702 14.4181C15.3831 14.5061 17.3744 13.8861 16.6809 12.0859C15.8646 9.96723 12.0906 9.80006 9.79491 10.9142C7.87447 11.8462 6.74934 13.7013 6.61947 15.6464C6.48915 17.5976 6.72708 18.6753 7.55991 20.7414Z" fill="#272727"/>
</svg>

<svg xmlns="http://www.w3.org/2000/svg" width="25" height="24" fill="none" viewBox="0 0 25 24"><path fill="#272727" fill-rule="evenodd" d="M18.752 5.612c1.375.844 2.672 2.587 3.601 1.965.93-.623 1.325-3.8-1.432-5.26-.988-.523-2.405-.195-2.995.751s-.126 1.96.826 2.544" clip-rule="evenodd"/><path fill="#272727" fill-rule="evenodd" d="M5.578 6.187c-1.424.758-2.773 2.403-3.663 1.725s-1.048-3.83 1.794-5.12c1.018-.462 2.369-.092 2.9.889.532.98-.044 1.98-1.03 2.506" clip-rule="evenodd"/><path fill="#272727" fill-rule="evenodd" d="M10.869 4.27c-.91.234-1.698-.421-2.005-1.384-.317-.996.33-2.008 1.069-2.277C11.27.121 13.025.178 14.22.608c.877.316 1.336 1.168 1.142 2.176-.194 1.007-.909 1.567-1.818 1.371-1.314-.282-2.677.114-2.677.114" clip-rule="evenodd"/><path fill="#272727" fill-rule="evenodd" d="M7.56 20.741c.494 1.227.383 2.403-.708 3.01-1.518.842-3.04-.673-3.568-1.61-.768-1.364-1.096-3.823-.775-6.404.522-4.194 3.534-8.128 7.694-9.03 4.911-1.065 9.73 1.401 10.462 4.934.33 1.611-.335 3.879-1.476 5.07-1.24 1.296-3.527 2.249-5.628 2.377-.83.05-2.478-.393-2.764-2.078-.243-1.436 1.053-2.675 2.773-2.592 1.813.088 3.804-.532 3.11-2.332-.815-2.119-4.59-2.286-6.885-1.172a5.66 5.66 0 0 0-3.176 4.732c-.13 1.952.108 3.03.94 5.095" clip-rule="evenodd"/></svg>
